assets/icons/header/perfil-inactive.svg

<svg preserveAspectRatio="none" width="100%" height="100%" overflow="visible" style="display: block;" viewBox="0 0 24 24" fill="none" xmlns="http://www.w3.org/2000/svg">
<g id="account_circle">
<mask id="mask0_0_114" style="mask-type:alpha" maskUnits="userSpaceOnUse" x="0" y="0" width="24" height="24">
<rect id="Bounding box" width="24" height="24" fill="var(--fill-0, #D9D9D9)"/>
</mask>
<g mask="url(#mask0_0_114)">
<path id="account_circle_2" d="M6.023 17.2923C6.873 16.6616 7.799 16.1635 8.801 15.798C9.80283 15.4327 10.8692 15.25 12 15.25C13.1308 15.25 14.1972 15.4327 15.199 15.798C16.201 16.1635 17.127 16.6616 17.977 17.2923C18.5987 16.6089 19.0912 15.8179 19.4547 14.9192C19.8182 14.0206 20 13.0475 20 12C20 9.78333 19.2208 7.89583 17.6625 6.3375C16.1042 4.77917 14.2167 4 12 4C9.78333 4 7.89583 4.77917 6.3375 6.3375C4.77917 7.89583 4 9.78333 4 12C4 13.0475 4.18175 14.0206 4.54525 14.9192C4.90875 15.8179 5.40133 16.6089 6.023 17.2923ZM12 12.75C11.0872 12.75 10.3173 12.4365 9.6905 11.8095C9.0635 11.1827 8.75 10.4128 8.75 9.5C8.75 8.58717 9.0635 7.81733 9.6905 7.1905C10.3173 6.5635 11.0872 6.25 12 6.25C12.9128 6.25 13.6827 6.5635 14.3095 7.1905C14.9365 7.81733 15.25 8.58717 15.25 9.5C15.25 10.4128 14.9365 11.1827 14.3095 11.8095C13.6827 12.4365 12.9128 12.75 12 12.75ZM12 21.5C10.6808 21.5 9.44333 21.2519 8.2875 20.7558C7.13167 20.2596 6.12625 19.5839 5.27125 18.7287C4.41608 17.8737 3.74042 16.8683 3.24425 15.7125C2.74808 14.5567 2.5 13.3192 2.5 12C2.5 10.6808 2.74808 9.44333 3.24425 8.2875C3.74042 7.13167 4.41608 6.12625 5.27125 5.27125C6.12625 4.41608 7.13167 3.74042 8.2875 3.24425C9.44333 2.74808 10.6808 2.5 12 2.5C13.3192 2.5 14.5567 2.74808 15.7125 3.24425C16.8683 3.74042 17.8737 4.41608 18.7287 5.27125C19.5839 6.12625 20.2596 7.13167 20.7558 8.2875C21.2519 9.44333 21.5 10.6808 21.5 12C21.5 13.3192 21.2519 14.5567 20.7558 15.7125C20.2596 16.8683 19.5839 17.8737 18.7287 18.7287C17.8737 19.5839 16.8683 20.2596 15.7125 20.7558C14.5567 21.2519 13.3192 21.5 12 21.5Z" fill="var(--fill-0, #B0B0B0)"/>
</g>
</g>
</svg>

<svg xmlns="http://www.w3.org/2000/svg" fill="none" overflow="visible" preserveAspectRatio="none" style="display:block" viewBox="0 0 24 24"><mask id="a" width="24" height="24" x="0" y="0" maskUnits="userSpaceOnUse" style="mask-type:alpha"><path fill="var(--fill-0, #d9d9d9)" d="M0 0h24v24H0z"/></mask><g mask="url(#a)"><path fill="var(--fill-0, #b0b0b0)" d="M6.023 17.292q1.275-.946 2.778-1.494A9.3 9.3 0 0 1 12 15.25q1.695 0 3.199.548t2.778 1.494a7.9 7.9 0 0 0 1.478-2.373A7.7 7.7 0 0 0 20 12q0-3.325-2.337-5.662Q15.325 4 12 4T6.338 6.338 4 12q0 1.57.545 2.92.545 1.347 1.478 2.372M12 12.75q-1.37 0-2.31-.94T8.75 9.5t.94-2.31T12 6.25t2.31.94.94 2.31-.94 2.31-2.31.94m0 8.75a9.3 9.3 0 0 1-3.713-.744 9.5 9.5 0 0 1-3.016-2.027 9.5 9.5 0 0 1-2.027-3.016A9.3 9.3 0 0 1 2.5 12q0-1.98.744-3.713a9.5 9.5 0 0 1 2.027-3.016 9.5 9.5 0 0 1 3.016-2.027A9.3 9.3 0 0 1 12 2.5a9.3 9.3 0 0 1 3.713.744 9.5 9.5 0 0 1 3.016 2.027 9.5 9.5 0 0 1 2.027 3.016A9.3 9.3 0 0 1 21.5 12q0 1.98-.744 3.713a9.5 9.5 0 0 1-2.027 3.016 9.5 9.5 0 0 1-3.016 2.027A9.3 9.3 0 0 1 12 21.5"/></g></svg>
